shader_type spatial;

uniform vec3 base_color : source_color = vec3(0,0,0);

void vertex() {
	// Called for every vertex the material is visible on.
}

void fragment() {
	ALBEDO = base_color;
}

//void light() {
//	// Called for every pixel for every light affecting the material.
//	// Uncomment to replace the default light processing function with this one.
//}
